core/assets/icons/gift.outline.svg

<svg width="24" height="24" viewBox="0 0 24 24" xmlns="http://www.w3.org/2000/svg"><g id="gift=outline"><path id="Vector" d="M14.5 2C15.0906 1.9998 15.6717 2.14908 16.1892 2.43393C16.7066 2.71879 17.1435 3.12995 17.4592 3.62914C17.7749 4.12832 17.9592 4.69929 17.9948 5.28886C18.0305 5.87843 17.9163 6.46743 17.663 7.001L21 7C21.2652 7 21.5196 7.10536 21.7071 7.2929C21.8946 7.48043 22 7.73479 22 8V12C22 12.2652 21.8946 12.5196 21.7071 12.7071C21.5196 12.8946 21.2652 13 21 13H20V21C20 21.2652 19.8946 21.5196 19.7071 21.7071C19.5196 21.8946 19.2652 22 19 22H5C4.73478 22 4.48043 21.8946 4.29289 21.7071C4.10536 21.5196 4 21.2652 4 21V13H3C2.73478 13 2.48043 12.8946 2.29289 12.7071C2.10536 12.5196 2 12.2652 2 12V8C2 7.73479 2.10536 7.48043 2.29289 7.2929C2.48043 7.10536 2.73478 7 3 7L6.337 7.001C5.98076 6.25268 5.90163 5.40221 6.1137 4.601C6.32577 3.7998 6.81529 3.09985 7.4951 2.62576C8.17491 2.15167 9.0009 1.9342 9.82603 2.01207C10.6512 2.08994 11.4219 2.4581 12.001 3.051C12.326 2.71753 12.7147 2.45268 13.1439 2.27215C13.5732 2.09162 14.0343 1.99908 14.5 2ZM18 13H6V20H18V13ZM20 9H4V11H20V9ZM9.5 4C9.11478 4.00019 8.74441 4.14858 8.46561 4.41441C8.18682 4.68025 8.02099 5.04315 8.00248 5.42792C7.98396 5.81269 8.11419 6.18984 8.36618 6.48121C8.61816 6.77257 8.97258 6.95583 9.356 6.993L9.5 7H11V5.5C11 5.12712 10.8611 4.76761 10.6104 4.49158C10.3597 4.21556 10.0152 4.0428 9.644 4.007L9.5 4ZM14.5 4L14.356 4.007C14.0094 4.04021 13.6851 4.19298 13.4388 4.43911C13.1925 4.68525 13.0395 5.0094 13.006 5.356L13 5.5V7H14.5L14.644 6.993C15.015 6.95703 15.3594 6.7842 15.6099 6.50819C15.8605 6.23218 15.9993 5.87277 15.9993 5.5C15.9993 5.12724 15.8605 4.76783 15.6099 4.49182C15.3594 4.21581 15.015 4.04297 14.644 4.007L14.5 4Z"/></g></svg>

<svg xmlns="http://www.w3.org/2000/svg" width="24" height="24" fill="none"><path fill="#191C22" d="M14.5 2a3.5 3.5 0 0 1 3.163 5.001L21 7a1 1 0 0 1 1 1v4a1 1 0 0 1-1 1h-1v8a1 1 0 0 1-1 1H5a1 1 0 0 1-1-1v-8H3a1 1 0 0 1-1-1V8a1 1 0 0 1 1-1l3.337.001a3.5 3.5 0 0 1 5.664-3.95A3.48 3.48 0 0 1 14.5 2ZM18 13H6v7h12v-7Zm2-4H4v2h16V9ZM9.5 4a1.5 1.5 0 0 0-.144 2.993L9.5 7H11V5.5a1.5 1.5 0 0 0-1.356-1.493L9.5 4Zm5 0-.144.007a1.5 1.5 0 0 0-1.35 1.349L13 5.5V7h1.5l.144-.007a1.5 1.5 0 0 0 0-2.986L14.5 4Z"/></svg>
